public/logos/JU.svg

<?xml version="1.0" encoding="UTF-8"?>
<svg xmlns="http://www.w3.org/2000/svg" xmlns:xlink="http://www.w3.org/1999/xlink" width="176pt" height="35.48pt" viewBox="0 0 176 35.48" version="1.1">
<defs>
<clipPath id="clip1">
  <path d="M 0 0 L 52 0 L 52 35.480469 L 0 35.480469 Z M 0 0 "/>
</clipPath>
</defs>
<g id="surface1">
<g clip-path="url(#clip1)" clip-rule="nonzero">
<path style=" stroke:none;fill-rule:nonzero;fill:rgb(13.404846%,26.025391%,47.265625%);fill-opacity:1;" d="M 27.253906 31.78125 C 27.746094 32.394531 29.101562 33.917969 29.265625 35.480469 C 29.265625 35.480469 30.617188 33.671875 29.59375 31.125 C 29.59375 31.125 29.429688 30.507812 27.707031 28.742188 L 26.1875 30.550781 L 26.394531 30.714844 Z M 30.046875 24.589844 L 28.566406 22.867188 C 27.296875 24.34375 21.671875 30.550781 21.550781 31.164062 C 20.5625 33.671875 21.878906 35.480469 21.878906 35.480469 C 22.042969 33.917969 23.398438 32.394531 23.890625 31.78125 Z M 33.863281 20.074219 L 35.75 17.9375 L 36.734375 16.703125 L 39.976562 12.964844 C 39.976562 12.964844 41.660156 11.035156 44.121094 10.953125 C 45.476562 10.914062 46.914062 11.445312 48.308594 12.597656 C 47.734375 13.214844 46.75 13.996094 45.4375 14.28125 C 44.121094 14.488281 42.6875 14.15625 41.167969 13.007812 L 39.691406 14.734375 C 41.742188 16.210938 43.878906 16.828125 45.890625 16.5 C 48.96875 15.84375 50.652344 13.214844 50.734375 13.046875 L 51.226562 12.308594 L 50.570312 11.652344 C 48.515625 9.597656 46.300781 8.613281 44.003906 8.695312 C 42.199219 8.777344 40.71875 9.558594 39.691406 10.253906 C 39.652344 10.296875 39.242188 10.585938 39.199219 10.625 L 37.597656 8.941406 C 37.230469 8.445312 36.613281 7.710938 36.488281 7.296875 C 36.367188 6.925781 36.367188 6.636719 36.328125 6.394531 C 36.164062 5.734375 36.082031 4.585938 36.082031 4.585938 C 36.082031 4.585938 36.082031 4.335938 35.957031 4.007812 L 35.835938 3.597656 C 35.835938 3.597656 37.148438 3.023438 38.09375 3.066406 L 38.625 3.804688 L 38.667969 3.105469 L 38.667969 2.078125 C 38.667969 2.078125 38.585938 1.542969 38.09375 1.132812 C 37.722656 0.847656 37.558594 0.804688 37.066406 0.761719 C 36.492188 0.679688 36.410156 0.804688 35.960938 0.394531 C 35.546875 -0.140625 32.839844 -0.0585938 32.140625 0.1875 C 32.140625 0.1875 31.648438 0.3125 31.277344 1.210938 L 30.539062 3.597656 C 30.539062 3.597656 30.335938 4.378906 30.292969 5.527344 C 30.253906 6.183594 30.171875 7.378906 30.007812 7.828125 L 29.59375 9.226562 C 29.023438 10.621094 28.445312 11.320312 28.445312 11.320312 L 26.230469 13.910156 L 25.613281 14.648438 L 25 13.910156 L 25 13.871094 C 24.261719 13.007812 23.480469 12.183594 22.785156 11.324219 C 22.785156 11.324219 22.128906 10.582031 21.554688 9.105469 L 21.222656 7.832031 C 21.019531 7.417969 20.9375 6.597656 20.894531 5.527344 C 20.855469 4.378906 20.691406 3.597656 20.691406 3.597656 L 19.910156 1.214844 C 19.582031 0.3125 19.007812 0.1875 19.007812 0.1875 C 18.347656 -0.0585938 15.640625 -0.140625 15.230469 0.394531 C 14.78125 0.804688 14.65625 0.679688 14.082031 0.761719 C 13.632812 0.804688 13.464844 0.847656 13.097656 1.132812 C 12.5625 1.542969 12.523438 2.078125 12.523438 2.078125 L 12.523438 3.105469 L 12.5625 3.804688 L 13.097656 3.066406 C 14.042969 3.023438 15.355469 3.597656 15.355469 3.597656 L 15.1875 4.007812 C 15.105469 4.335938 15.105469 4.582031 15.105469 4.582031 C 15.105469 4.582031 15.023438 5.734375 14.902344 6.390625 C 14.820312 6.636719 14.777344 6.925781 14.695312 7.292969 C 14.488281 7.828125 13.503906 9.019531 13.257812 9.226562 L 11.984375 10.621094 C 11.039062 9.804688 9.359375 8.773438 7.226562 8.691406 C 4.886719 8.609375 2.707031 9.597656 0.613281 11.652344 L 0 12.308594 L 0.453125 13.046875 C 0.53125 13.210938 2.214844 15.839844 5.292969 16.5 C 7.304688 16.828125 9.441406 16.25 11.53125 14.773438 L 10.015625 13.046875 C 8.496094 14.152344 7.140625 14.484375 5.746094 14.277344 C 4.476562 13.992188 3.53125 13.210938 2.953125 12.59375 C 4.308594 11.445312 5.703125 10.910156 7.101562 10.949219 C 9.523438 11.035156 11.246094 12.960938 11.246094 12.960938 L 14.816406 17.195312 L 16.292969 15.507812 L 13.542969 12.261719 L 16.785156 8.195312 L 18.097656 6.511719 C 18.386719 8.15625 19.863281 10.988281 20.476562 11.976562 L 16.90625 16.207031 L 13.953125 19.742188 C 13.132812 20.558594 10.382812 23.316406 7.101562 25.121094 C 7.101562 25.121094 8.125 25.863281 9.480469 25.820312 C 10.300781 25.820312 11.160156 25.535156 12.066406 24.667969 C 12.476562 24.300781 12.96875 23.804688 13.503906 23.316406 C 13.503906 23.316406 13.257812 23.929688 13.871094 25.039062 C 14.28125 25.859375 15.0625 26.351562 16.128906 26.394531 C 17.769531 26.476562 18.960938 25.574219 19.824219 24.585938 L 18.632812 23.230469 C 18.632812 23.230469 17.566406 24.792969 16.210938 23.847656 C 15.757812 23.355469 15.757812 22.617188 15.757812 22.617188 C 15.757812 21.585938 19.984375 16.289062 20.808594 15.179688 L 21.914062 13.78125 L 24.132812 16.328125 L 24.175781 16.410156 L 21.382812 19.902344 L 22.613281 21.300781 L 25.609375 18.054688 L 29.222656 22.121094 L 31.601562 24.792969 C 32.421875 25.695312 33.53125 26.433594 35.050781 26.394531 C 36.117188 26.355469 36.9375 25.859375 37.386719 25.039062 C 37.964844 23.929688 37.675781 23.316406 37.675781 23.316406 C 38.207031 23.808594 38.742188 24.300781 39.113281 24.667969 C 41.492188 26.929688 44.121094 25.121094 44.121094 25.121094 C 40.835938 23.3125 38.085938 20.558594 37.304688 19.738281 L 36.402344 18.671875 L 34.554688 20.765625 C 35.460938 21.957031 35.417969 22.613281 35.417969 22.613281 C 35.417969 22.613281 35.460938 23.355469 34.96875 23.847656 C 33.695312 24.789062 32.507812 23.148438 32.507812 23.148438 C 30.660156 20.886719 28.894531 18.628906 27.046875 16.410156 L 27.085938 16.328125 L 28.441406 14.726562 L 29.261719 13.78125 L 31.972656 17.476562 L 33.695312 15.421875 L 30.699219 11.972656 C 31.3125 10.984375 32.792969 8.152344 33.078125 6.507812 L 34.390625 8.191406 L 37.636719 12.257812 L 36.980469 13 L 34.269531 16.207031 L 31.929688 18.914062 L 31.230469 19.78125 L 32.707031 21.464844 L 33.863281 20.074219 "/>
</g>
<path style=" stroke:none;fill-rule:nonzero;fill:rgb(13.404846%,26.025391%,47.265625%);fill-opacity:1;" d="M 23.519531 27.34375 L 24.996094 25.578125 L 19.25 18.882812 L 17.855469 20.6875 L 23.519531 27.34375 "/>
<path style=" stroke:none;fill-rule:nonzero;fill:rgb(13.404846%,26.025391%,47.265625%);fill-opacity:1;" d="M 172.058594 19.578125 C 171.816406 19.578125 171.691406 19.578125 171.691406 19.578125 L 167.464844 19.578125 L 171.648438 12.554688 Z M 169.886719 10.378906 L 160.199219 25.742188 L 163.808594 25.78125 L 165.820312 22.375 L 172.226562 22.375 L 172.429688 25.742188 L 176 25.78125 L 175.753906 22.824219 L 174.523438 9.226562 L 171.855469 9.226562 C 171.035156 9.226562 170.378906 9.636719 169.886719 10.378906 Z M 158.433594 10.992188 L 154.410156 25.742188 L 157.855469 25.742188 L 162.289062 9.226562 L 160.648438 9.226562 C 160.152344 9.226562 159.660156 9.433594 159.296875 9.761719 C 158.84375 10.089844 158.554688 10.5 158.433594 10.992188 Z M 141.851562 22.78125 L 143 18.46875 L 146.980469 18.46875 C 147.96875 18.46875 148.625 18.59375 148.992188 18.964844 C 149.324219 19.292969 149.402344 19.867188 149.199219 20.648438 C 148.992188 21.386719 148.625 21.921875 148.089844 22.25 C 147.515625 22.621094 146.777344 22.78125 145.875 22.78125 Z M 143.78125 15.636719 L 144.722656 12.101562 L 148.539062 12.101562 C 149.484375 12.101562 150.101562 12.265625 150.304688 12.511719 C 150.632812 12.800781 150.71875 13.253906 150.554688 13.867188 C 150.347656 14.441406 150.058594 14.894531 149.609375 15.183594 C 149.113281 15.511719 148.5 15.632812 147.640625 15.632812 L 143.78125 15.632812 Z M 141.769531 10.949219 L 137.746094 25.742188 L 145.296875 25.742188 C 147.1875 25.742188 148.785156 25.328125 150.101562 24.464844 C 151.375 23.5625 152.234375 22.328125 152.6875 20.726562 C 152.933594 19.742188 152.933594 18.917969 152.6875 18.347656 C 152.398438 17.6875 151.90625 17.195312 151.167969 16.824219 C 151.90625 16.539062 152.480469 16.085938 153.011719 15.550781 C 153.546875 14.933594 153.878906 14.277344 154.121094 13.414062 C 154.449219 12.101562 154.328125 11.074219 153.628906 10.332031 C 152.890625 9.59375 151.699219 9.226562 150.015625 9.226562 L 143.941406 9.226562 C 143.488281 9.226562 142.996094 9.429688 142.628906 9.71875 C 142.179688 10.089844 141.890625 10.5 141.769531 10.949219 Z M 127.320312 16.457031 L 128.46875 12.058594 L 132.65625 12.058594 C 133.4375 12.058594 133.972656 12.265625 134.21875 12.675781 C 134.585938 12.964844 134.628906 13.539062 134.425781 14.277344 C 134.21875 15.019531 133.890625 15.554688 133.398438 15.882812 C 132.863281 16.25 132.207031 16.457031 131.304688 16.457031 Z M 125.351562 10.949219 L 121.367188 25.742188 L 124.777344 25.742188 L 126.542969 19.332031 L 130.152344 19.332031 C 131.015625 19.332031 131.589844 19.496094 131.878906 19.867188 C 132.039062 20.277344 132.085938 20.933594 131.878906 21.878906 L 131.429688 23.683594 C 131.386719 23.851562 131.34375 24.21875 131.261719 24.714844 C 131.222656 25.085938 131.222656 25.453125 131.304688 25.742188 L 135.039062 25.742188 C 134.792969 25.578125 134.671875 25.207031 134.710938 24.632812 C 134.792969 24.46875 134.835938 24.21875 134.871094 24.015625 C 134.957031 23.765625 134.996094 23.605469 135.035156 23.359375 L 135.488281 21.429688 C 135.695312 20.277344 135.734375 19.453125 135.613281 18.960938 C 135.449219 18.46875 135.035156 18.058594 134.378906 17.855469 C 135.324219 17.523438 136.023438 17.074219 136.597656 16.457031 C 137.214844 15.757812 137.664062 14.894531 137.949219 13.867188 C 138.402344 12.347656 138.238281 11.15625 137.578125 10.417969 C 136.921875 9.597656 135.652344 9.226562 133.886719 9.226562 L 127.609375 9.226562 C 127.113281 9.226562 126.664062 9.386719 126.214844 9.71875 C 125.761719 10.046875 125.515625 10.457031 125.351562 10.949219 Z M 113.324219 12.058594 L 121.984375 12.058594 L 122.722656 9.226562 L 112.464844 9.226562 C 112.011719 9.226562 111.519531 9.390625 111.109375 9.71875 C 110.660156 10.050781 110.410156 10.460938 110.246094 10.949219 L 106.265625 25.699219 L 118.289062 25.699219 L 119.152344 22.660156 L 110.449219 22.660156 L 111.601562 18.429688 L 116.320312 18.429688 C 116.769531 18.429688 117.265625 18.308594 117.675781 17.9375 C 118.125 17.605469 118.371094 17.195312 118.496094 16.703125 L 118.824219 15.59375 L 112.382812 15.59375 Z M 94.238281 17.484375 C 94.6875 17.855469 95.636719 18.179688 97.195312 18.550781 L 97.566406 18.632812 L 97.648438 18.675781 C 100.398438 19.371094 101.585938 20.195312 101.300781 21.222656 C 101.136719 21.878906 100.726562 22.371094 100.109375 22.742188 C 99.492188 23.109375 98.671875 23.277344 97.6875 23.277344 C 96.578125 23.277344 95.800781 23.070312 95.265625 22.617188 C 94.773438 22.207031 94.527344 21.511719 94.691406 20.5625 L 91.324219 20.5625 C 90.914062 22.371094 91.203125 23.765625 92.144531 24.714844 C 92.964844 25.617188 94.484375 26.109375 96.617188 26.109375 C 98.753906 26.109375 100.519531 25.660156 101.953125 24.757812 C 103.308594 23.8125 104.296875 22.453125 104.746094 20.730469 C 104.953125 19.949219 104.953125 19.167969 104.828125 18.511719 C 104.050781 16.457031 100.96875 15.964844 99.085938 15.429688 C 97.316406 15.058594 96.535156 14.363281 96.824219 13.496094 C 96.988281 12.882812 97.359375 12.386719 97.933594 12.019531 C 98.425781 11.648438 99.164062 11.488281 100.148438 11.488281 C 101.136719 11.488281 101.832031 11.730469 102.324219 12.101562 C 102.570312 12.347656 102.695312 12.597656 102.773438 12.925781 C 102.898438 13.621094 103.351562 13.949219 104.089844 13.949219 L 105.976562 13.949219 C 106.386719 12.347656 106.183594 11.074219 105.320312 10.085938 C 104.539062 9.183594 103.144531 8.730469 101.175781 8.730469 C 99.082031 8.730469 97.398438 9.144531 96.042969 10.007812 C 94.730469 10.910156 93.867188 12.144531 93.417969 13.703125 C 93.210938 14.605469 93.171875 15.347656 93.292969 15.882812 C 93.375 16.578125 93.707031 17.113281 94.238281 17.484375 Z M 81.679688 18.632812 L 80.203125 25.742188 L 83.894531 25.742188 L 85.453125 18.222656 C 85.660156 17.152344 86.070312 16.332031 86.683594 15.839844 C 87.261719 15.347656 88.082031 15.101562 89.1875 15.101562 L 90.707031 15.101562 C 90.707031 15.101562 90.746094 13.621094 91.035156 12.882812 C 91.367188 11.898438 91.941406 11.199219 91.941406 11.199219 L 90.625 11.199219 C 89.640625 11.199219 88.695312 11.363281 87.753906 11.570312 C 86.769531 11.855469 85.949219 12.226562 85.128906 12.757812 C 84.347656 13.335938 83.609375 14.117188 82.992188 15.101562 C 82.417969 16.046875 81.96875 17.238281 81.679688 18.632812 Z M 75.234375 14.195312 C 77.082031 13.375 78.601562 12.597656 79.339844 12.144531 C 79.421875 11.730469 79.339844 11.320312 79.09375 10.949219 C 78.804688 10.582031 78.476562 10.417969 77.902344 10.417969 L 76.054688 10.378906 Z M 72.855469 25.742188 L 76.546875 25.742188 L 78.765625 15.058594 L 78.722656 15.140625 C 77.289062 15.757812 75.976562 16.292969 74.703125 16.703125 Z M 53.933594 25.742188 L 57.546875 25.742188 L 59.554688 22.371094 L 66 22.371094 L 66.164062 25.742188 L 69.777344 25.742188 L 69.203125 19.25 C 66.78125 19.621094 65.507812 19.578125 65.507812 19.578125 L 61.199219 19.578125 L 65.464844 12.554688 L 65.753906 18.429688 C 66.78125 18.308594 67.890625 18.019531 69.078125 17.648438 L 68.257812 9.226562 L 65.589844 9.226562 C 64.769531 9.226562 64.113281 9.636719 63.621094 10.378906 L 53.933594 25.742188 "/>
</g>
</svg>

<svg xmlns="http://www.w3.org/2000/svg" width="176pt" height="47.307" viewBox="0 0 176 35.48"><defs><clipPath id="a"><path d="M0 0h52v35.48H0Zm0 0"/></clipPath></defs><g clip-path="url(#a)"><path d="M27.254 31.781c.492.614 1.848 2.137 2.012 3.7 0 0 1.351-1.81.328-4.356 0 0-.164-.617-1.887-2.383l-1.52 1.809.208.164Zm2.793-7.191-1.48-1.723c-1.27 1.477-6.895 7.684-7.016 8.297-.988 2.508.328 4.316.328 4.316.164-1.562 1.52-3.085 2.012-3.699Zm3.816-4.516 1.887-2.137.984-1.234 3.243-3.738s1.683-1.93 4.144-2.012c1.356-.039 2.793.492 4.188 1.645-.575.617-1.559 1.398-2.871 1.683-1.317.207-2.75-.125-4.27-1.273l-1.477 1.726c2.051 1.477 4.188 2.094 6.2 1.766 3.078-.656 4.761-3.285 4.843-3.453l.493-.738-.657-.657c-2.054-2.054-4.27-3.039-6.566-2.957-1.805.082-3.285.864-4.313 1.559-.039.043-.449.332-.492.371l-1.601-1.684c-.368-.496-.985-1.23-1.11-1.644-.12-.371-.12-.66-.16-.902-.164-.66-.246-1.81-.246-1.81s0-.25-.125-.577l-.121-.41s1.312-.575 2.258-.532l.531.739.043-.7V2.078s-.082-.535-.574-.945c-.371-.285-.535-.328-1.028-.371-.574-.082-.656.043-1.105-.367-.414-.536-3.121-.454-3.82-.208 0 0-.493.126-.864 1.024l-.738 2.387s-.203.78-.246 1.93c-.04.656-.121 1.85-.285 2.3l-.414 1.399c-.57 1.394-1.149 2.093-1.149 2.093l-2.215 2.59-.617.738L25 13.91v-.039c-.738-.863-1.52-1.687-2.215-2.547 0 0-.656-.742-1.23-2.219l-.332-1.273c-.203-.414-.285-1.234-.328-2.305a12.4 12.4 0 0 0-.204-1.93l-.78-2.382c-.329-.903-.903-1.027-.903-1.027-.66-.247-3.367-.329-3.778.207-.449.41-.574.285-1.148.367-.45.043-.617.086-.984.37-.536.411-.575.946-.575.946v1.027l.04.7.535-.739c.945-.043 2.257.532 2.257.532l-.168.41c-.082.328-.082.574-.082.574s-.082 1.152-.203 1.809c-.082.246-.125.535-.207.902-.207.535-1.191 1.727-1.437 1.934l-1.274 1.394c-.945-.816-2.625-1.848-4.757-1.93-2.34-.082-4.52.907-6.614 2.961L0 12.31l.453.738c.078.164 1.762 2.793 4.84 3.453 2.012.328 4.148-.25 6.238-1.727l-1.515-1.726c-1.52 1.105-2.875 1.437-4.27 1.23-1.27-.285-2.215-1.066-2.793-1.683 1.356-1.149 2.75-1.684 4.149-1.645 2.421.086 4.144 2.012 4.144 2.012l3.57 4.234 1.477-1.687-2.75-3.246 3.242-4.067 1.313-1.683c.289 1.644 1.765 4.476 2.379 5.465l-3.57 4.23-2.954 3.535c-.82.817-3.57 3.574-6.851 5.38 0 0 1.023.741 2.378.698.82 0 1.68-.285 2.586-1.152.41-.367.903-.863 1.438-1.352 0 0-.246.614.367 1.723.41.82 1.191 1.313 2.258 1.356 1.64.082 2.832-.82 3.695-1.81l-1.191-1.355s-1.067 1.563-2.422.618c-.453-.493-.453-1.23-.453-1.23 0-1.032 4.226-6.329 5.05-7.438l1.106-1.399 2.219 2.547.043.082-2.793 3.492 1.23 1.399 2.996-3.246 3.614 4.066 2.379 2.672c.82.902 1.93 1.64 3.449 1.602 1.066-.04 1.886-.536 2.336-1.356.578-1.11.289-1.723.289-1.723.531.493 1.066.985 1.437 1.352 2.38 2.262 5.008.453 5.008.453-3.285-1.808-6.035-4.562-6.816-5.383l-.903-1.066-1.847 2.094c.906 1.191.863 1.847.863 1.847s.043.742-.45 1.235c-1.273.941-2.46-.7-2.46-.7-1.848-2.261-3.613-4.52-5.461-6.738l.039-.082 1.355-1.601.82-.946 2.712 3.696 1.722-2.055-2.996-3.45c.613-.988 2.094-3.82 2.38-5.464L34.39 8.19l3.246 4.067-.657.742-2.71 3.207-2.34 2.707-.7.867 1.477 1.684z" style="stroke:none;fill-rule:nonzero;fill:#224279;fill-opacity:1"/></g><path d="m23.52 27.344 1.476-1.766-5.746-6.695-1.395 1.805zM172.059 19.578h-4.594l4.183-7.023Zm-2.172-9.2-9.688 15.364 3.61.04 2.011-3.407h6.407l.203 3.367 3.57.04-.246-2.958-1.23-13.597h-2.669c-.82 0-1.476.41-1.968 1.152m-11.453.614-4.024 14.75h3.445l4.434-16.515h-1.64c-.497 0-.989.207-1.352.535q-.68.492-.863 1.23m-16.582 11.79L143 18.468h3.98c.989 0 1.645.125 2.012.496.332.328.41.902.207 1.683-.207.739-.574 1.274-1.11 1.602-.573.371-1.312.531-2.214.531Zm1.93-7.145.94-3.535h3.817c.945 0 1.563.164 1.766.41q.494.434.25 1.355c-.207.574-.496 1.028-.946 1.317-.496.328-1.109.449-1.968.449h-3.86Zm-2.012-4.688-4.024 14.793h7.55c1.892 0 3.49-.414 4.806-1.277 1.273-.902 2.132-2.137 2.585-3.738.247-.985.247-1.809 0-2.38-.289-.66-.78-1.152-1.519-1.523.738-.285 1.312-.738 1.844-1.273.535-.617.867-1.274 1.11-2.137.327-1.312.206-2.34-.493-3.082-.738-.738-1.93-1.105-3.613-1.105h-6.075c-.453 0-.945.203-1.312.492q-.676.556-.86 1.23m-14.45 5.508 1.149-4.398h4.187c.781 0 1.317.207 1.563.617.367.289.41.863.207 1.601-.207.743-.535 1.278-1.028 1.606-.535.367-1.191.574-2.093.574Zm-1.968-5.508-3.985 14.793h3.41l1.766-6.41h3.61c.863 0 1.437.164 1.726.535.16.41.207 1.067 0 2.012l-.45 1.805c-.042.168-.085.535-.167 1.03-.04.372-.04.74.043 1.028h3.734c-.246-.164-.367-.535-.328-1.11.082-.163.125-.413.16-.616.086-.25.125-.41.164-.657l.453-1.93q.308-1.729.125-2.468c-.164-.492-.578-.902-1.234-1.106.945-.332 1.644-.78 2.219-1.398q.924-1.049 1.351-2.59c.453-1.52.29-2.71-.37-3.449-.657-.82-1.927-1.191-3.692-1.191h-6.278c-.496 0-.945.16-1.394.492-.453.328-.7.738-.863 1.23m-12.028 1.11h8.66l.739-2.832h-10.258c-.453 0-.945.164-1.356.492-.449.332-.699.742-.863 1.23l-3.98 14.75h12.023l.863-3.039h-8.703l1.153-4.23h4.718c.45 0 .946-.121 1.356-.492.449-.333.695-.743.82-1.235l.328-1.11h-6.441Zm-19.086 5.425c.45.371 1.399.696 2.957 1.067l.371.082.082.043c2.75.695 3.938 1.52 3.653 2.547-.164.656-.574 1.148-1.192 1.52-.617.366-1.437.534-2.421.534-1.11 0-1.887-.207-2.422-.66-.493-.41-.739-1.105-.575-2.055h-3.367c-.41 1.81-.12 3.204.82 4.153.82.902 2.34 1.394 4.473 1.394 2.137 0 3.903-.449 5.336-1.351a6.96 6.96 0 0 0 2.793-4.028 5.1 5.1 0 0 0 .082-2.218c-.777-2.055-3.86-2.547-5.742-3.082-1.77-.371-2.55-1.067-2.262-1.934.164-.613.535-1.11 1.11-1.476.492-.372 1.23-.532 2.214-.532.989 0 1.684.242 2.176.614.246.246.371.496.45.824.124.695.578 1.023 1.316 1.023h1.887c.41-1.601.207-2.875-.657-3.863-.78-.902-2.175-1.356-4.144-1.356-2.094 0-3.778.415-5.133 1.278-1.313.902-2.176 2.137-2.625 3.695-.207.902-.246 1.645-.125 2.18.082.695.414 1.23.945 1.601M81.68 18.633l-1.477 7.11h3.692l1.558-7.52c.207-1.07.617-1.891 1.23-2.383.579-.492 1.399-.738 2.504-.738h1.52s.04-1.48.328-2.22c.332-.984.906-1.683.906-1.683h-1.316c-.984 0-1.93.164-2.871.371a9.5 9.5 0 0 0-2.625 1.188 8.6 8.6 0 0 0-2.137 2.344c-.574.945-1.023 2.136-1.312 3.53m-6.446-4.438c1.848-.82 3.368-1.597 4.106-2.05.082-.415 0-.825-.246-1.196-.29-.367-.617-.531-1.192-.531l-1.847-.04Zm-2.379 11.547h3.692l2.219-10.683-.043.082c-1.434.617-2.746 1.152-4.02 1.562Zm-18.921 0h3.613l2.008-3.37H66l.164 3.37h3.613l-.574-6.492c-2.422.371-3.695.328-3.695.328h-4.309l4.266-7.023.289 5.875c1.027-.121 2.137-.41 3.324-.782l-.82-8.421H65.59c-.82 0-1.477.41-1.969 1.152z" style="stroke:none;fill-rule:nonzero;fill:#224279;fill-opacity:1"/></svg>
